Numix-GalliumOS/64/mimetypes/text-x-c.svg

<svg xmlns="http://www.w3.org/2000/svg" xmlns:xlink="http://www.w3.org/1999/xlink" width="64px" height="64px" viewBox="0 0 64 64" version="1.1">
<g id="surface1">
<path style=" stroke:none;fill-rule:nonzero;fill:rgb(17.647059%,17.647059%,17.647059%);fill-opacity:1;" d="M 10.671875 0 C 9.296875 0 8 1.355469 8 2.789062 L 8 61.210938 C 8 62.566406 9.375 64 10.671875 64 L 53.328125 64 C 54.625 64 56 62.566406 56 61.210938 L 56 18 L 38 0 Z M 10.671875 0 "/>
<path style=" stroke:none;fill-rule:nonzero;fill:rgb(0%,0%,0%);fill-opacity:0.196078;" d="M 42 18 L 56 32 L 56 18 Z M 42 18 "/>
<path style=" stroke:none;fill-rule:nonzero;fill:rgb(100%,100%,100%);fill-opacity:0.392157;" d="M 38 0 L 55.984375 18 L 40.757812 18 C 39.410156 18 38 16.574219 38 15.226562 Z M 38 0 "/>
<path style=" stroke:none;fill-rule:nonzero;fill:rgb(86.27451%,86.27451%,86.27451%);fill-opacity:1;" d="M 20 36.785156 C 20 35.222656 20.300781 33.683594 20.886719 32.160156 C 21.484375 30.625 22.339844 29.253906 23.453125 28.046875 C 24.597656 26.847656 25.976562 25.867188 27.613281 25.125 C 29.238281 24.378906 31.101562 24 33.203125 24 C 35.664062 24 37.785156 24.523438 39.578125 25.550781 C 41.390625 26.589844 42.714844 27.941406 43.578125 29.597656 L 39.453125 32.234375 C 39.148438 31.511719 38.742188 30.910156 38.25 30.425781 C 37.757812 29.921875 37.222656 29.53125 36.625 29.234375 C 36.054688 28.949219 35.453125 28.742188 34.839844 28.625 C 34.214844 28.484375 33.617188 28.40625 33.046875 28.40625 C 31.78125 28.40625 30.664062 28.664062 29.707031 29.167969 C 28.746094 29.675781 27.945312 30.332031 27.296875 31.148438 C 26.679688 31.949219 26.199219 32.863281 25.863281 33.902344 C 25.554688 34.910156 25.398438 35.917969 25.398438 36.929688 C 25.398438 38.0625 25.574219 39.15625 25.941406 40.214844 C 26.328125 41.25 26.855469 42.164062 27.535156 42.953125 C 28.230469 43.753906 29.0625 44.390625 30.023438 44.867188 C 30.980469 45.355469 32.027344 45.59375 33.167969 45.59375 C 33.757812 45.59375 34.375 45.527344 34.988281 45.382812 C 35.613281 45.230469 36.210938 45 36.773438 44.6875 C 37.371094 44.382812 37.917969 43.984375 38.410156 43.496094 C 38.902344 42.992188 39.304688 42.394531 39.613281 41.699219 L 44 44.039062 C 43.585938 45 42.980469 45.859375 42.179688 46.609375 C 41.398438 47.324219 40.511719 47.945312 39.5 48.449219 C 38.488281 48.953125 37.425781 49.332031 36.308594 49.601562 C 35.199219 49.867188 34.101562 50 33.011719 50 C 31.09375 50 29.335938 49.621094 27.726562 48.847656 C 26.144531 48.078125 24.773438 47.078125 23.613281 45.847656 C 22.46875 44.59375 21.574219 43.183594 20.933594 41.621094 C 20.308594 40.03125 20 38.421875 20 36.785156 "/>
</g>
</svg>

<svg xmlns="http://www.w3.org/2000/svg" viewBox="0 0 64 64">
 <g>
  <path d="m 10.672 0 c -1.375 0 -2.672 1.355 -2.672 2.789 l 0 58.42 c 0 1.355 1.375 2.789 2.672 2.789 l 42.656 0 c 1.297 0 2.672 -1.434 2.672 -2.789 l 0 -43.21 l -18 -18 m -27.328 0" style="fill:#2d2d2d;fill-opacity:1;stroke:none;fill-rule:nonzero"/>
  <path d="m 42 18 l 14 14 l 0 -14 m -14 0" style="fill:#000;fill-opacity:0.196;stroke:none;fill-rule:nonzero"/>
  <path d="m 38 0 l 17.984 18 l -15.227 0 c -1.348 0 -2.758 -1.426 -2.758 -2.773 m 0 -15.227" style="fill:#fff;fill-opacity:0.392;stroke:none;fill-rule:nonzero"/>
  <path d="m 20 36.785 c 0 -1.563 0.301 -3.102 0.887 -4.625 c 0.598 -1.535 1.453 -2.906 2.566 -4.113 c 1.145 -1.199 2.523 -2.18 4.16 -2.922 c 1.625 -0.746 3.488 -1.125 5.59 -1.125 c 2.461 0 4.582 0.523 6.375 1.551 c 1.813 1.039 3.137 2.391 4 4.047 l -4.125 2.637 c -0.305 -0.723 -0.711 -1.324 -1.203 -1.809 c -0.492 -0.504 -1.027 -0.895 -1.625 -1.191 c -0.57 -0.285 -1.172 -0.492 -1.785 -0.609 c -0.625 -0.141 -1.223 -0.219 -1.793 -0.219 c -1.266 0 -2.383 0.258 -3.34 0.762 c -0.961 0.508 -1.762 1.164 -2.41 1.98 c -0.617 0.801 -1.098 1.715 -1.434 2.754 c -0.309 1.01 -0.465 2.02 -0.465 3.03 c 0 1.133 0.176 2.227 0.543 3.285 c 0.387 1.035 0.914 1.949 1.594 2.738 c 0.695 0.801 1.527 1.438 2.488 1.914 c 0.957 0.488 2 0.727 3.145 0.727 c 0.59 0 1.207 -0.066 1.82 -0.211 c 0.625 -0.152 1.223 -0.383 1.785 -0.695 c 0.598 -0.305 1.145 -0.703 1.637 -1.191 c 0.492 -0.504 0.895 -1.102 1.203 -1.797 l 4.387 2.34 c -0.414 0.961 -1.02 1.82 -1.82 2.57 c -0.781 0.715 -1.668 1.336 -2.68 1.84 c -1.012 0.504 -2.074 0.883 -3.191 1.152 c -1.109 0.266 -2.207 0.398 -3.297 0.398 c -1.918 0 -3.676 -0.379 -5.285 -1.152 c -1.582 -0.77 -2.953 -1.77 -4.113 -3 c -1.145 -1.254 -2.039 -2.664 -2.68 -4.227 c -0.625 -1.59 -0.934 -3.199 -0.934 -4.836" style="fill:#dcdcdc;fill-opacity:1;stroke:none;fill-rule:nonzero"/>
 </g>
</svg>
